X: 49
T:Levi Jackson
C:Pat Shaw
M:2/4
L:1/8
K:G
%%text 5 times
de f|"G"g2 d2|e/2d/2B/2d/2 -"D7"d/2B/2A|"G"G4|D4|"Bb"=F2 _B2|d/2=f/2g/2f/2 -f/2d/2c|"Am"d4 -|"D7"dd ef|
"G"g2 d2|e/2d/2B/2d/2 -"D7"d/2B/2A|"G"G4|"C"E3 "Cm"_E|
"G"D2 "E7"d2|"A7"B/2G/2A/2_B/2 -"D7"B/2G/2A|"G"G4 -|GG F=F||
"C"E/2G/2A/2C/2 E/2G/2E/2G/2|A/2C/2E/2G/2 E/2G/2A/2c/2|"Am"ee/2e/2 -e/2d/2c|A4|
"E"^G/2B/2^c/2E/2 G/2B/2G/2B/2|^c/2E/2^G/2B/2 G/2B/2c/2e/2|"C#m"^gg/2g/2 -g/2f/2e|^c4|
"E"^gg/2g/2 -g/2f/2e|"A7"=gg/2g/2 -g/2f/2e|"D"ff/2f/2 -f/2e/2d/2e/2|"D7"f/2a/2f/2e/2 d/2e/2f/2a/2|
"G"b/2a/2f/2e/2 -"E"e/2d/2B|"A"e/2d/2B/2A/2 -"D"A/2G/2E|"G"G4-|G|]
